projects/vfh1/img/icons-service/spa.svg

<svg viewBox="0 0 33 28" fill="none" xmlns="http://www.w3.org/2000/svg">
<path d="M22.3203 18.7426H11.0335C10.3667 18.7426 9.80558 19.5558 9.79745 20.5641C9.78932 21.5725 10.3504 22.41 11.0091 22.41H22.304C22.9627 22.41 23.5238 21.5968 23.5319 20.5885C23.54 19.5802 22.9871 18.7426 22.3203 18.7426Z" fill="#42474D"/>
<path d="M19.2954 7.63468C19.2954 8.15612 19.1406 8.66583 18.8508 9.09927C18.5609 9.53272 18.1489 9.87041 17.667 10.0696C17.1851 10.2687 16.655 10.3204 16.1437 10.2181C15.6324 10.1158 15.1629 9.86407 14.7948 9.49479C14.4267 9.12551 14.1764 8.65529 14.0756 8.14368C13.9749 7.63207 14.0282 7.10206 14.2289 6.62078C14.4296 6.1395 14.7685 5.7286 15.2029 5.44008C15.6372 5.15155 16.1474 4.9984 16.6688 5.00001C17.0144 5.00001 17.3566 5.06821 17.6758 5.20071C17.995 5.33322 18.2849 5.52742 18.5289 5.77218C18.7729 6.01693 18.9662 6.30744 19.0978 6.62705C19.2293 6.94666 19.2964 7.28907 19.2954 7.63468Z" fill="#42474D"/>
<path d="M19.1083 12.0827H14.2293C14.1545 12.0909 14.0858 12.1276 14.0373 12.1852C13.9889 12.2427 13.9644 12.3167 13.969 12.3917V21.548C13.9642 21.624 13.9884 21.699 14.0367 21.7578C14.085 21.8167 14.1538 21.855 14.2293 21.8652H16.4167C16.4274 21.8051 16.459 21.7507 16.5058 21.7115C16.5527 21.6723 16.6118 21.6508 16.6728 21.6508C16.7339 21.6508 16.793 21.6723 16.8399 21.7115C16.8867 21.7507 16.9182 21.8051 16.929 21.8652H19.1164C19.1919 21.855 19.2607 21.8167 19.309 21.7578C19.3572 21.699 19.3814 21.624 19.3766 21.548V12.3917C19.3811 12.3154 19.3556 12.2403 19.3054 12.1826C19.2553 12.1248 19.1845 12.089 19.1083 12.0827Z" fill="#42474D"/>
<path d="M24.6785 19.1817L24.2963 18.8971C23.6266 18.3426 23.0235 17.7123 22.4992 17.0187C22.125 16.4947 21.8112 15.93 21.5641 15.3354C21.3689 14.8312 21.2144 14.3189 20.9786 13.8229C20.4921 12.7253 19.6538 11.8211 18.596 11.2533C18.2651 11.0847 17.9119 10.9643 17.547 10.8955C17.352 10.8529 17.153 10.8311 16.9534 10.8304H16.6037C16.4023 10.8272 16.2011 10.8408 16.002 10.8711C15.6333 10.9243 15.2744 11.0312 14.9367 11.1882C13.8583 11.701 12.9824 12.5597 12.4484 13.6278C12.1963 14.1075 12.0174 14.6117 11.806 15.1159C11.5321 15.6941 11.1938 16.2397 10.7977 16.7422C10.2477 17.4209 9.61688 18.0299 8.91923 18.5556C8.79358 18.6488 8.66331 18.7357 8.52891 18.8158C8.2892 18.9555 8.11345 19.1832 8.03903 19.4505C7.96462 19.7177 7.99742 20.0035 8.13046 20.247C8.26709 20.4877 8.49335 20.6647 8.75991 20.7393C9.02647 20.8139 9.31172 20.7802 9.55351 20.6454C10.135 20.2817 10.6796 19.8623 11.1798 19.3931C12.2054 18.4698 13.0349 17.3499 13.6194 16.0998C13.7739 15.7501 13.904 15.4005 14.0503 15.0508C14.2338 14.6456 14.4601 14.2613 14.7253 13.9042C14.9018 13.6938 15.0978 13.5004 15.3108 13.3269C15.4884 13.2008 15.6793 13.0944 15.88 13.0097C16.0391 12.954 16.2022 12.9105 16.3679 12.8796H16.7094C16.7742 12.8875 16.8398 12.8875 16.9046 12.8796H17.0509C17.218 12.9122 17.3814 12.9613 17.5388 13.026C17.7308 13.1224 17.9132 13.2368 18.0837 13.3675C18.2938 13.5478 18.4845 13.7495 18.6529 13.9693C18.901 14.3372 19.1108 14.7296 19.279 15.1403C19.4173 15.4981 19.5311 15.8558 19.6694 16.2055C20.2049 17.4828 20.9964 18.6368 21.995 19.5964C22.4743 20.0877 22.9999 20.5316 23.5645 20.9219C23.6819 20.994 23.8124 21.0422 23.9485 21.0639C24.0847 21.0855 24.2237 21.0801 24.3577 21.048C24.4917 21.0159 24.6181 20.9578 24.7297 20.8768C24.8412 20.7959 24.9358 20.6938 25.0078 20.5763C25.0799 20.4588 25.1282 20.3283 25.1498 20.1922C25.1714 20.0561 25.1661 19.9171 25.134 19.783C25.1019 19.649 25.0437 19.5226 24.9628 19.4111C24.8818 19.2995 24.7797 19.205 24.6622 19.1329L24.6785 19.1817Z" fill="#42474D"/>
</svg>

<svg viewBox="0 0 33 28" fill="none" xmlns="http://www.w3.org/2000/svg"><path d="M22.32 18.743H11.033c-.666 0-1.227.813-1.236 1.821-.008 1.009.553 1.846 1.212 1.846h11.295c.659 0 1.22-.813 1.228-1.822.008-1.008-.545-1.845-1.212-1.845zM19.295 7.635a2.635 2.635 0 11-1.62-2.434 2.627 2.627 0 011.62 2.434z" fill="#42474D"/><path d="M19.108 12.083H14.23a.293.293 0 00-.26.309v9.156a.3.3 0 00.26.317h2.188a.26.26 0 01.512 0h2.187a.301.301 0 00.26-.317v-9.156a.292.292 0 00-.268-.31z" fill="#42474D"/><path d="M24.678 19.182l-.382-.285A11.233 11.233 0 0122.5 17.02a8.528 8.528 0 01-.935-1.684c-.195-.504-.35-1.016-.585-1.512a5.4 5.4 0 00-2.383-2.57 3.904 3.904 0 00-1.049-.357 2.828 2.828 0 00-.594-.066h-.35a3.822 3.822 0 00-1.667.358 5.351 5.351 0 00-2.488 2.44c-.252.48-.43.984-.642 1.488a8.518 8.518 0 01-1.008 1.626 10.721 10.721 0 01-1.879 1.814 4.66 4.66 0 01-.39.26 1.065 1.065 0 00-.399 1.431 1.049 1.049 0 001.424.398 10.57 10.57 0 001.626-1.252 10.302 10.302 0 002.44-3.293c.154-.35.284-.7.43-1.05.184-.404.41-.789.675-1.146.177-.21.373-.404.586-.577.177-.126.368-.233.569-.317.16-.056.322-.1.488-.13h.341c.065.007.13.007.196 0h.146c.167.032.33.081.488.146.192.096.374.21.545.341.21.18.4.382.569.602.248.368.458.76.626 1.171.138.358.252.716.39 1.066a10.14 10.14 0 002.326 3.39c.48.492 1.005.936 1.57 1.326a1.05 1.05 0 101.097-1.79l.017.05z" fill="#42474D"/></svg>
